X: 1
T: Miss Galvin's
M: 4/4
L: 1/8
R: hornpipe
K: Dmaj
d2cA GEFE | D2FA D2FA | d2cA GEFA |1 cdef ~g3B :|2 (3Bcd ec d3z ||
fgaf ~d3e | fgaf ~g3e | fgaf ~d3d | =cdef ~g2fg |
fgaf ~d3e | fgaf ~g3e | fAeA dcAG | =cdef ~g2fg :||
